Assets/BizUp/logoBizUp.svg

<svg width="295" height="125" viewBox="0 0 295 125" fill="none" xmlns="http://www.w3.org/2000/svg">
<g clip-path="url(#clip0_50_540)">
<path d="M50.9895 63.6002C49.0752 62.3775 46.9383 61.5415 44.7002 61.14C46.1248 60.7577 47.5112 60.2462 48.842 59.6118C51.5821 58.2156 53.8888 56.1026 55.5148 53.4994C57.2976 50.5487 58.1822 47.1459 58.0612 43.7041C58.1478 39.9884 57.1283 36.3302 55.1313 33.1907C53.0382 30.0828 50.0715 27.659 46.6024 26.2225C42.3026 24.4541 37.6764 23.6105 33.0266 23.7469H0V100.764H34.1158C38.8906 100.893 43.637 99.9913 48.029 98.1204C51.6059 96.5722 54.6429 94.0041 56.7573 90.7396C58.7838 87.4305 59.8164 83.6125 59.7332 79.7371C59.756 76.519 58.9422 73.3498 57.3709 70.5379C55.8562 67.7326 53.6629 65.348 50.9895 63.6002ZM16.567 36.9193H30.0354C32.9926 36.7144 35.9228 37.595 38.2728 39.3949C39.2204 40.2643 39.9633 41.3315 40.4486 42.5203C40.9339 43.7091 41.1495 44.99 41.08 46.2714C41.1524 47.5463 40.9378 48.8213 40.4522 50.0031C39.9665 51.1849 39.2219 52.2437 38.2728 53.1021C35.9462 54.8504 33.0661 55.7073 30.1581 55.5165H16.567V36.9193ZM39.9295 84.948C37.4416 86.7116 34.416 87.5596 31.3699 87.3472H16.567V67.665H31.1398C34.2577 67.4871 37.3369 68.4247 39.8222 70.3087C40.8573 71.227 41.6708 72.3664 42.2021 73.6418C42.7333 74.9171 42.9685 76.2956 42.8901 77.6742C42.9879 79.0224 42.7716 80.3749 42.258 81.626C41.7444 82.8772 40.9476 83.9932 39.9295 84.8869V84.948Z" fill="white"/>
<path d="M87.1917 23.5483C85.1597 21.8056 82.5381 20.8986 79.8592 21.0116C77.227 20.9004 74.6538 21.8096 72.6802 23.5483C71.7767 24.3682 71.0622 25.3732 70.5855 26.4943C70.1089 27.6153 69.8815 28.8259 69.919 30.0428C69.8881 31.2408 70.1191 32.4313 70.5958 33.5316C71.0726 34.6319 71.7838 35.6157 72.6802 36.415C74.6505 38.1593 77.226 39.0694 79.8592 38.9517C82.539 39.071 85.1629 38.1632 87.1917 36.415C88.1041 35.6255 88.8303 34.6449 89.3182 33.5433C89.8061 32.4418 90.0438 31.2465 90.0142 30.0428C90.0503 28.8204 89.8161 27.605 89.3284 26.4827C88.8406 25.3604 88.1112 24.3586 87.1917 23.5483Z" fill="white"/>
<path d="M88.1427 45.3392H71.5757V100.795H88.1427V45.3392Z" fill="white"/>
<path d="M145.345 58.5422V45.3392H99.4019V58.9853H126.354L99.0645 87.5917V100.795H145.897V87.1485H117.84L145.345 58.5422Z" fill="white"/>
<path d="M204.112 70.8588C204.197 73.8893 203.589 76.8995 202.332 79.6607C201.248 81.9743 199.454 83.8847 197.209 85.1161C194.656 86.3891 191.825 87.0088 188.971 86.9193C186.158 87.0019 183.368 86.382 180.857 85.1161C178.61 83.9006 176.826 81.984 175.779 79.6607C174.559 76.8898 173.972 73.8833 174.061 70.8588V23.7775H157.494V70.7518C157.262 76.8498 158.694 82.8963 161.636 88.2488C164.273 92.7521 168.199 96.3698 172.91 98.64C177.854 100.996 183.277 102.183 188.757 102.109C194.27 102.173 199.725 100.986 204.71 98.64C209.498 96.3585 213.524 92.7508 216.307 88.2488C219.398 82.9467 220.915 76.8789 220.679 70.7518V62.4541H204.112V70.8588Z" fill="white"/>
<path d="M291.472 58.3129C289.258 54.1028 286.006 50.522 282.022 47.9065C277.961 45.3038 273.214 43.9633 268.385 44.0556C265.781 44.0099 263.188 44.4025 260.715 45.217C258.688 45.8895 256.801 46.9252 255.147 48.2732C253.635 49.5583 252.263 50.9975 251.051 52.5672L249.18 45.3087H234.484V124.954H251.051V94.1931C252.953 96.668 255.412 98.6624 258.23 100.015C261.453 101.48 264.967 102.196 268.508 102.109C273.231 102.167 277.87 100.867 281.869 98.3649C285.897 95.8212 289.19 92.2769 291.426 88.0807C293.875 83.494 295.111 78.3608 295.015 73.1662C295.093 67.9985 293.875 62.8931 291.472 58.3129ZM276.331 80.8068C275.218 82.9443 273.515 84.7204 271.423 85.926C269.25 87.1544 266.787 87.7822 264.29 87.7445C261.762 87.7897 259.268 87.1619 257.065 85.926C254.955 84.7103 253.244 82.9108 252.141 80.7457C250.938 78.3795 250.333 75.7569 250.376 73.1051C250.338 70.5076 250.944 67.9407 252.141 65.6326C253.304 63.4417 255.045 61.6083 257.176 60.3294C259.307 59.0506 261.748 58.3749 264.236 58.3749C266.724 58.3749 269.165 59.0506 271.296 60.3294C273.427 61.6083 275.168 63.4417 276.331 65.6326C277.492 67.9946 278.096 70.5898 278.096 73.2197C278.096 75.8497 277.492 78.4448 276.331 80.8068Z" fill="white"/>
<path d="M220.664 55.4554V16.5037V0H157.494V16.5037H204.112V55.4554H220.664Z" fill="white"/>
</g>
<defs>
<clipPath id="clip0_50_540">
<rect width="295" height="125" fill="white"/>
</clipPath>
</defs>
</svg>

<?xml version="1.0" encoding="utf-8"?>
<!-- Generator: Adobe Illustrator 26.0.3, SVG Export Plug-In . SVG Version: 6.00 Build 0)  -->
<svg version="1.1" id="Layer_1" xmlns="http://www.w3.org/2000/svg" xmlns:xlink="http://www.w3.org/1999/xlink" x="0px" y="0px"
	 viewBox="0 0 295 125" style="enable-background:new 0 0 295 125;" xml:space="preserve">
<style type="text/css">
	.st0{clip-path:url(#SVGID_00000182516922330829768760000016720031940049674418_);}
	.st1{fill:#161615;}
</style>
<g>
	<defs>
		<rect id="SVGID_1_" width="295" height="125"/>
	</defs>
	<clipPath id="SVGID_00000169551494545150594920000013809327613964292532_">
		<use xlink:href="#SVGID_1_"  style="overflow:visible;"/>
	</clipPath>
	<g style="clip-path:url(#SVGID_00000169551494545150594920000013809327613964292532_);">
		<path class="st1" d="M51,63.6c-1.9-1.2-4.1-2.1-6.3-2.5c1.4-0.4,2.8-0.9,4.1-1.5c2.7-1.4,5-3.5,6.7-6.1c1.8-3,2.7-6.4,2.5-9.8
			c0.1-3.7-0.9-7.4-2.9-10.5c-2.1-3.1-5.1-5.5-8.5-7c-4.3-1.8-8.9-2.6-13.6-2.5H0v77h34.1c4.8,0.1,9.5-0.8,13.9-2.6
			c3.6-1.5,6.6-4.1,8.7-7.4c2-3.3,3.1-7.1,3-11c0-3.2-0.8-6.4-2.4-9.2C55.9,67.7,53.7,65.3,51,63.6z M16.6,36.9H30
			c3-0.2,5.9,0.7,8.2,2.5c0.9,0.9,1.7,1.9,2.2,3.1c0.5,1.2,0.7,2.5,0.6,3.8c0.1,1.3-0.1,2.5-0.6,3.7c-0.5,1.2-1.2,2.2-2.2,3.1
			c-2.3,1.7-5.2,2.6-8.1,2.4H16.6V36.9z M39.9,84.9c-2.5,1.8-5.5,2.6-8.6,2.4H16.6V67.7h14.6c3.1-0.2,6.2,0.8,8.7,2.6
			c1,0.9,1.8,2.1,2.4,3.3c0.5,1.3,0.8,2.7,0.7,4c0.1,1.3-0.1,2.7-0.6,4C41.7,82.9,40.9,84,39.9,84.9L39.9,84.9z"/>
		<path class="st1" d="M87.2,23.5c-2-1.7-4.7-2.6-7.3-2.5c-2.6-0.1-5.2,0.8-7.2,2.5c-0.9,0.8-1.6,1.8-2.1,2.9
			c-0.5,1.1-0.7,2.3-0.7,3.5c0,1.2,0.2,2.4,0.7,3.5c0.5,1.1,1.2,2.1,2.1,2.9c2,1.7,4.5,2.7,7.2,2.5c2.7,0.1,5.3-0.8,7.3-2.5
			c0.9-0.8,1.6-1.8,2.1-2.9c0.5-1.1,0.7-2.3,0.7-3.5c0-1.2-0.2-2.4-0.7-3.6C88.8,25.4,88.1,24.4,87.2,23.5z"/>
		<path class="st1" d="M88.1,45.3H71.6v55.5h16.6V45.3z"/>
		<path class="st1" d="M145.3,58.5V45.3H99.4V59h27L99.1,87.6v13.2h46.8V87.1h-28.1L145.3,58.5z"/>
		<path class="st1" d="M204.1,70.9c0.1,3-0.5,6-1.8,8.8c-1.1,2.3-2.9,4.2-5.1,5.5c-2.6,1.3-5.4,1.9-8.2,1.8
			c-2.8,0.1-5.6-0.5-8.1-1.8c-2.2-1.2-4-3.1-5.1-5.5c-1.2-2.8-1.8-5.8-1.7-8.8V23.8h-16.6v47c-0.2,6.1,1.2,12.1,4.1,17.5
			c2.6,4.5,6.6,8.1,11.3,10.4c4.9,2.4,10.4,3.5,15.8,3.5c5.5,0.1,11-1.1,16-3.5c4.8-2.3,8.8-5.9,11.6-10.4
			c3.1-5.3,4.6-11.4,4.4-17.5v-8.3h-16.6V70.9z"/>
		<path class="st1" d="M291.5,58.3c-2.2-4.2-5.5-7.8-9.4-10.4c-4.1-2.6-8.8-3.9-13.6-3.9c-2.6,0-5.2,0.3-7.7,1.2
			c-2,0.7-3.9,1.7-5.6,3.1c-1.5,1.3-2.9,2.7-4.1,4.3l-1.9-7.3h-14.7V125h16.6V94.2c1.9,2.5,4.4,4.5,7.2,5.8
			c3.2,1.5,6.7,2.2,10.3,2.1c4.7,0.1,9.4-1.2,13.4-3.7c4-2.5,7.3-6.1,9.6-10.3c2.4-4.6,3.7-9.7,3.6-14.9
			C295.1,68,293.9,62.9,291.5,58.3z M276.3,80.8c-1.1,2.1-2.8,3.9-4.9,5.1c-2.2,1.2-4.6,1.9-7.1,1.8c-2.5,0-5-0.6-7.2-1.8
			c-2.1-1.2-3.8-3-4.9-5.2c-1.2-2.4-1.8-5-1.8-7.6c0-2.6,0.6-5.2,1.8-7.5c1.2-2.2,2.9-4,5-5.3c2.1-1.3,4.6-2,7.1-2s4.9,0.7,7.1,2
			c2.1,1.3,3.9,3.1,5,5.3c1.2,2.4,1.8,5,1.8,7.6C278.1,75.8,277.5,78.4,276.3,80.8z"/>
		<path class="st1" d="M220.7,55.5v-39V0h-63.2v16.5h46.6v39H220.7z"/>
	</g>
</g>
</svg>
